svgs/light/folder-arrow-down.svg

<svg xmlns="http://www.w3.org/2000/svg" viewBox="0 0 512 512"><!-- Font Awesome Pro 6.0.0-alpha2 by @fontawesome - https://fontawesome.com License - https://fontawesome.com/license (Commercial License) --><path d="M448 96H272L226.746 50.746C214.742 38.742 198.465 32 181.49 32H64C28.654 32 0 60.654 0 96V416C0 451.346 28.654 480 64 480H448C483.346 480 512 451.346 512 416V160C512 124.654 483.346 96 448 96ZM480 416C480 433.645 465.645 448 448 448H64C46.355 448 32 433.645 32 416V96C32 78.355 46.355 64 64 64H181.49C190.039 64 198.074 67.328 204.117 73.375L249.373 118.627L258.746 128H448C465.645 128 480 142.355 480 160V416ZM244.688 379.312C250.938 385.562 261.063 385.562 267.312 379.312L347.312 299.312C353.562 293.062 353.562 282.937 347.312 276.688S330.937 270.438 324.688 276.688L272 329.375V208C272 199.156 264.844 192 256 192S240 199.156 240 208V329.375L187.312 276.688C184.188 273.562 180.094 272 176 272S167.812 273.562 164.688 276.688C158.438 282.938 158.438 293.063 164.688 299.312L244.688 379.312Z"/></svg>

<svg xmlns="http://www.w3.org/2000/svg" viewBox="0 0 512 512"><!--! Font Awesome Pro 6.3.0 by @fontawesome - https://fontawesome.com License - https://fontawesome.com/license (Commercial License) Copyright 2023 Fonticons, Inc. --><path d="M448 96h-176L226.7 50.75C214.7 38.74 198.5 32 181.5 32H64C28.65 32 0 60.65 0 96v320c0 35.35 28.65 64 64 64h384c35.35 0 64-28.65 64-64V160C512 124.7 483.3 96 448 96zM480 416c0 17.64-14.36 32-32 32H64c-17.64 0-32-14.36-32-32V96c0-17.64 14.36-32 32-32h117.5c8.549 0 16.58 3.328 22.63 9.375L258.7 128H448c17.64 0 32 14.36 32 32V416zM244.7 379.3c6.25 6.25 16.38 6.25 22.62 0l80-80c6.25-6.25 6.25-16.38 0-22.62s-16.38-6.25-22.62 0L272 329.4V208C272 199.2 264.8 192 256 192S240 199.2 240 208v121.4L187.3 276.7C184.2 273.6 180.1 272 176 272S167.8 273.6 164.7 276.7c-6.25 6.25-6.25 16.38 0 22.62L244.7 379.3z"/></svg>
